!!!OTL: Der schwatzhafte Junggeselle Es waren mal drei G'sellen, G'sellen,
!!!ARE: Europa, Mitteleuropa, Schweiz, Graubuenden, Bez. Heinzenberg, Portein
!!!YOR: 6, S. 274
!!    1938 aufgezeichnet
!!!SCT: Q0139D
!!!YEM: Copyright 1995, estate of Helmut Schaffrath.
**kern
*ICvox
*Ivox
*M2/4
*k[f#c#g#]
*A:
{8ee
=1
8.cc#
16cc#
8.cc#
16cc#
=2
8cc#
8a
4r
=3
8cc#
8a
8r}
{8ee
=4
12cc#
12cc#
12cc#
8cc#
8cc#
=5
8cc#
8a
4r
=6
8cc#
8a
8r}
{8ee
=7
8.cc#
16cc#
8.cc#
16cc#
=8
4cc#
8r
8ee
=9
8ff#
8ee
8dd
8cc#
=10
4.b}
{8a
=11
8g#
8b
8dd
8ee
=12
4.gg#
8ff#
=13
8ee
8ee
8dd
8dd
=14
4cc#
8r}
{8ee
=15
8.cc#
16cc#
8.cc#
16cc#
=16
4cc#
8r
8ee
=17
8ff#
8ee
8dd
8cc#
=18
4.b}
{8a
=19
8g#
8b
8dd
8ee
=20
4.gg#
8ff#
=21
8ee
8ee
8dd
8dd
=22
4cc#
8r}
==
!!!AGN: Ballade, Indiskretion, verweigerter Beischlaf; Studenten - Lied
!! Anhaengsel an der 1. und 2. Zeile.
!!!ONB: ESAC (Essen Associative Code) Database: BALLADE
!!!AMT: simple duple
!!!AIN: vox
!!!EED: Helmut Schaffrath
!!!EEV: 1.0
*-
